X:1
T:Be Thou Exalted
T:John Sylvester Fearis
T:Be Thou Exalted
T:Public Domain
T:Public Domain
C:John Sylvester Fearis
Z:Public Domain
%%score ( 1 2 ) ( 3 4 )
L:1/8
M:3/4
K:C
V:1 treble 
V:2 treble 
V:3 bass 
V:4 bass 
V:1
 [Ec]4 [DB][Fd] | [Ec]2 [EG]2 [CE]2 | [B,D]2 [DF]2 [FA]2 | [FA]2 [EG]4 | [Ec]4 [Ec][Ec] | %5
w: 1.~Be Thou ex-|alt- ed, for-|ev- er and|ev- er,|God of e-|
w: 2.~Be Thou ex-|alt- ed, O|Son of the|High- est!|Gra- cious Re-|
w: 3.~Be Thou ex-|alt- ed, O|Spir- it e-|ter- nal!|Dwell in our|
 [DB]2 [Gd]2 G2 | [^FA]2 [Fc]2 [DF]2 | [DG]6 | [Ec]4 [DB][Fd] | [Ec]2 [EG]2 [CE]2 | %10
w: ter- ni- ty,|cient of Days!|Won-|drous in ma-|jes- ty, per-|
w: deem- er, our|ior and King!|One|with the Fa-|ther, co- eq-|
w: hearts, keep us|ly with- in;|Lead|to Thy home|in the life|
 [B,D]2 [DF]2 [FA]2 | [FA]2 [EG]4 | [FA]4 F[FA] | [Gc]2 G2 [Ec]2 | [Fd]2 [FA]2 [FB]2 | [Ec]6 || %16
w: fect in wis-|dom, Glor-|ious in ho-|ness, fear- ful|praise. * *||
w: ual in glo-|ry, Here|at Thy foot-|our hom- age|bring. * *||
w: ev- er- last-|ing, O-|pen its por-|and wel- come|in. * *||
"^Refrain" [CE]4 [CE][CE] | [DE]2 [DE]2 [DE]2 | [CE]2 [Ec]2 [EA]2 | [EA]2 [E^G]4 | [EA]4 E[EA] | %21
w: |||||
w: |||||
w: |||||
 [Ec]2 [EB]2 [EA]2 | [DG]2 [DA]2 [D^F]2 | [DG]6 | [Ec]4 [DB][Fd] | [Ec]2 [EG]2 [CE]2 | %26
w: |||||
w: |||||
w: |||||
 [B,D]2 [DF]2 [FA]2 | [FA]2 [EG]4 | [FA]4 F[FA] | [Gc]2 G2 [Ec]2 | [Fd]2 [FA]2 [FB]2 | [Ec]6 |] %32
w: ||||||
w: ||||||
w: ||||||
V:2
 x6 | x6 | x6 | x6 | x6 | x4 G2 | x6 | x6 | x6 | x6 | x6 | x6 | x4 F x | x2 G2 x2 | x6 | x6 || x6 | %17
w: |||||An-|||||||li-|in||||
w: |||||Sav-|||||||stool|we||||
w: |||||ho-|||||||tals|us||||
 x6 | x6 | x6 | x4 E x | x6 | x6 | x6 | x6 | x6 | x6 | x6 | x4 F x | x2 G2 x2 | x6 | x6 |] %32
w: |||||||||||||||
w: |||||||||||||||
w: |||||||||||||||
V:3
 [C,G,]4 [C,G,][C,G,] | [C,G,]2 [C,C]2 [C,G,]2 | [G,,G,]2 [G,,B,]2 [G,,B,]2 | [C,C]2 [C,C]4 | %4
w: ~ ~ ~|~ ~ ~|~ ~ ~|~ ~|
 (C2 A,2) [A,,G,][A,,G,] | [D,G,]2 [D,B,]2 [D,B,]2 | [D,C]2 [D,A,]2 [D,C]2 | [G,B,]6 | %8
w: ~ * ~ ~|~ ~ ~|~ ~ ~|~|
 [C,G,]4 [C,G,][C,G,] | [C,G,]2 [C,C]2 [C,G,]2 | [G,,G,]2 [G,,B,]2 [G,,B,]2 | [C,C]2 [C,C]4 | %12
w: ~ ~ ~|~ ~ ~|~ ~ ~|~ ~|
 [D,C]4 [F,A,][F,C] | [E,C]2 [E,C]2 [C,G,]2 | [F,A,]2 [F,C]2 G,2 | [C,G,]6 || %16
w: ~ ~ ~|~ ~ ~|~ ~ ~|Thou|
 [C,G,]4 [C,G,][C,G,] | [B,,^G,]2 [B,,G,]2 [E,G,]2 | [A,,A,]2 [A,,C]2 [C,C]2 | [E,C]2 [E,B,]4 | %20
w: ex- alt- ed|by ser- aphs|and an- gels,|Be Thou|
 [A,,C]4 [A,,C][A,,C] | [A,,A,]2 [B,,D]2 [C,C]2 | [D,B,]2 [D,C]2 [D,A,]2 | [G,B,]6 | %24
w: ex- alt- ed|with harp and|with song; Saints|in|
 [C,G,]4 [C,G,][C,G,] | [C,G,]2 [C,C]2 [C,G,]2 | [G,,G,]2 [G,,B,]2 [G,,B,]2 | [C,C]2 [C,C]4 | %28
w: their an- thems|of rap- ture|a- dore Thee,|Mar- tyrs|
 [F,C]4 [F,A,][F,C] | [E,C]2 [E,C]2 [C,G,]2 | [F,A,]2 [F,C]2 G,2 | [C,G,]6 |] %32
w: the loud hal-|le- lu- jahs|pro- long. *||
V:4
 x6 | x6 | x6 | x6 | A,,4 x2 | x6 | x6 | x6 | x6 | x6 | x6 | x6 | x6 | x6 | x4 G,2 | x6 || x6 | %17
w: ||||~||||||||||Be|||
 x6 | x6 | x6 | x6 | x6 | x6 | x6 | x6 | x6 | x6 | x6 | x6 | x6 | x4 G,2 | x6 |] %32
w: |||||||||||||||

